Sources/FrostedUI/Resources/Icons.xcassets/profileX16.imageset/profile-x-16.svg

<svg width="16" height="16" viewBox="0 0 16 16" fill="none" xmlns="http://www.w3.org/2000/svg" data-fui-icon="true">
  <path
    d="M8.00073 8.08301C8.39286 8.08302 8.77339 8.1184 9.1394 8.1875C9.54633 8.26437 9.81378 8.65753 9.73706 9.06445C9.66001 9.47126 9.26797 9.73897 8.86108 9.66211C8.58875 9.6107 8.30154 9.58302 8.00073 9.58301C7.97189 9.58301 7.94326 9.58348 7.91577 9.58398H7.91479C7.77307 9.58646 7.63404 9.59682 7.4978 9.61133C7.42765 9.61878 7.35821 9.62719 7.28979 9.6377C7.25319 9.64332 7.21659 9.64878 7.18042 9.65527C7.10545 9.66872 7.03152 9.68416 6.95874 9.70117C5.55439 10.0297 4.51132 11.0206 4.02515 12.335C3.99087 12.4276 4.00638 12.5048 4.07104 12.582C4.14621 12.6716 4.28776 12.7499 4.4646 12.75H8.16675C8.58086 12.75 8.91658 13.0859 8.91675 13.5C8.91657 13.9141 8.58085 14.25 8.16675 14.25H4.4646C3.85603 14.2499 3.2893 13.9843 2.92163 13.5459C2.54377 13.0951 2.38074 12.4584 2.6189 11.8145C3.25776 10.0875 4.63933 8.75132 6.47827 8.27344C6.48408 8.27193 6.49004 8.27005 6.49585 8.26855C6.59664 8.24271 6.69902 8.21984 6.80249 8.19922C6.81577 8.19657 6.82921 8.19397 6.84253 8.19141C7.05115 8.15134 7.26527 8.12245 7.48413 8.10449C7.51524 8.10193 7.5466 8.09975 7.57788 8.09766C7.68031 8.09082 7.78393 8.08581 7.88843 8.08398L8.00073 8.08301ZM10.1365 10.1357C10.4293 9.84299 10.9051 9.84311 11.198 10.1357L12.0007 10.9385L12.8035 10.1357C13.0962 9.84316 13.5711 9.84338 13.864 10.1357C14.1569 10.4286 14.1568 10.9034 13.864 11.1963L13.0603 11.999L13.864 12.8027C14.1569 13.0956 14.1568 13.5704 13.864 13.8633C13.5711 14.1561 13.0963 14.1562 12.8035 13.8633L12.0007 13.0605L11.198 13.8633C10.9051 14.1562 10.4294 14.1562 10.1365 13.8633C9.84414 13.5704 9.84398 13.0955 10.1365 12.8027L10.9392 11.999L10.1365 11.1963C9.84425 10.9034 9.84387 10.4284 10.1365 10.1357ZM8.00073 1.08301C9.79542 1.0831 11.2506 2.53827 11.2507 4.33301C11.2507 6.12788 9.79552 7.58291 8.00073 7.58301C6.20588 7.58291 4.75073 6.12788 4.75073 4.33301C4.7509 2.53828 6.20598 1.08311 8.00073 1.08301ZM8.00073 2.58301C7.0344 2.58311 6.2509 3.36671 6.25073 4.33301C6.25073 5.29944 7.0343 6.08291 8.00073 6.08301C8.96711 6.08291 9.75073 5.29944 9.75073 4.33301C9.75057 3.36672 8.96701 2.5831 8.00073 2.58301Z"
    fill="currentColor"
  />
</svg>

<svg xmlns="http://www.w3.org/2000/svg" width="16" height="16" fill="none" data-fui-icon="true" viewBox="0 0 16 16"><path fill="currentColor" d="M8 8.083q.59 0 1.14.104a.75.75 0 0 1-.279 1.475 4.6 4.6 0 0 0-.945-.078h-.001a5 5 0 0 0-.625.054q-.055.007-.11.017a4 4 0 0 0-.221.046c-1.405.329-2.448 1.32-2.934 2.634-.034.093-.019.17.046.247.075.09.217.168.394.168h3.702a.75.75 0 0 1 0 1.5H4.465a2.02 2.02 0 0 1-1.543-.704 1.73 1.73 0 0 1-.303-1.731c.639-1.727 2.02-3.064 3.86-3.542l.017-.004a6 6 0 0 1 1.082-.171q.154-.01.31-.014zm2.137 2.053a.75.75 0 0 1 1.061 0l.803.803.803-.803a.75.75 0 0 1 1.06 1.06L13.06 12l.804.804a.75.75 0 0 1-1.06 1.06L12 13.06l-.803.803a.751.751 0 0 1-1.062-1.06l.803-.804-.803-.803a.75.75 0 0 1 0-1.06M8 1.083A3.25 3.25 0 1 1 8 7.583a3.25 3.25 0 0 1 0-6.5m0 1.5a1.75 1.75 0 1 0 0 3.5 1.75 1.75 0 0 0 0-3.5"/></svg>
